;FLAVOR:Marlin
;TIME:1273
;Filament used: 1.75637m
;Layer height: 0.3
;MINX:135.2
;MINY:135.2
;MINZ:0.3
;MAXX:166.746
;MAXY:164.8
;MAXZ:19.8
;Generated with Cura_SteamEngine 4.7.1
M140 S70
M105
M190 S70
M104 S235
M105
M109 S235
M82 ;absolute extrusion mode
M201 X1000 Y1000 Z1000 E5000 ; sets max accelerations, mm/sec
M203 X200 Y200 Z12 E120 ; sets max feedrate
M204 P1250 R1250 T1250 ; sets accelration (P , T) and retract
M205 S0 T0 ; sets min extruding and travel feedrate

G28 ; Auto Home
M420 S1
G92 E0 ;Reset Extruder
G1 Z2.0 F3000 ;Move Z Axis up
G1 X10.1 Y20 Z0.28 F5000.0 ;Move to start position
G1 X10.1 Y200.0 Z0.28 F1500.0 E15 ;Draw the first line
G1 X10.4 Y200.0 Z0.28 F5000.0 ;Move to side a little
G1 X10.4 Y20 Z0.28 F1500.0 E30 ;Draw the second line
G92 E0 ;Reset Extruder
G1 Z2.0 F3000 ;Move Z Axis up
G92 E0
G92 E0
G1 F600 E-6.5
;LAYER_COUNT:66
;LAYER:0
M107
G0 F2400 X136.625 Y136.605 Z0.3
;TYPE:SKIRT
G1 F600 E0
G1 F900 X137.091 Y136.198 E0.02778
G1 X137.606 Y135.854 E0.05559
G1 X138.161 Y135.579 E0.0834
G1 X138.747 Y135.378 E0.11122
G1 X139.354 Y135.254 E0.13904
G1 X139.874 Y135.211 E0.16246
G1 X140.33 Y135.2 E0.18294
G1 X159.362 Y135.2 E1.0375
G1 X160.06 Y135.21 E1.06885
G1 X160.677 Y135.259 E1.09664
G1 X161.283 Y135.387 E1.12445
G1 X161.868 Y135.592 E1.15228
G1 X162.421 Y135.871 E1.18009
G1 X162.934 Y136.218 E1.2079
G1 X163.398 Y136.628 E1.23571
G1 X163.805 Y137.095 E1.26352
G1 X164.148 Y137.61 E1.2913
G1 X164.423 Y138.166 E1.31916
G1 X164.623 Y138.752 E1.34696
G1 X164.696 Y139.059 E1.36113
G1 X164.89 Y140.02 E1.40515
G1 X165.051 Y140.879 E1.44439
G1 X165.615 Y143.492 E1.56442
G1 X166.29 Y146.229 E1.691
G1 X166.578 Y147.323 E1.74179
G1 X166.696 Y147.931 E1.7696
G1 X166.744 Y148.722 E1.80518
G1 X166.746 Y148.87 E1.81183
G1 X166.745 Y149.971 E1.86126
G1 X166.734 Y150.678 E1.89301
G1 X166.685 Y151.295 E1.9208
G1 X166.597 Y151.748 E1.94153
G1 X166.307 Y152.929 E1.99613
G1 X165.697 Y155.577 E2.11814
G1 X165.179 Y158.146 E2.23581
G1 X164.741 Y160.702 E2.35225
G1 X164.707 Y160.882 E2.36048
G1 X164.553 Y161.482 E2.38829
G1 X164.323 Y162.057 E2.4161
G1 X164.021 Y162.598 E2.44392
G1 X163.651 Y163.095 E2.47174
G1 X163.221 Y163.541 E2.49956
G1 X162.737 Y163.927 E2.52736
G1 X162.208 Y164.248 E2.55514
G1 X161.641 Y164.498 E2.58296
G1 X161.047 Y164.673 E2.61077
G1 X160.435 Y164.77 E2.63859
G1 X159.805 Y164.798 E2.66691
G1 X159.67 Y164.8 E2.67297
G1 X140.638 Y164.8 E3.52753
G1 X139.94 Y164.79 E3.55887
G1 X139.323 Y164.741 E3.58666
G1 X138.717 Y164.613 E3.61447
G1 X138.132 Y164.408 E3.64231
G1 X137.579 Y164.129 E3.67012
G1 X137.066 Y163.782 E3.69793
G1 X136.602 Y163.372 E3.72573
G1 X136.195 Y162.905 E3.75354
G1 X135.852 Y162.39 E3.78133
G1 X135.577 Y161.834 E3.80918
G1 X135.377 Y161.248 E3.83698
G1 X135.253 Y160.641 E3.8648
G1 X135.211 Y160.12 E3.88827
G1 X135.2 Y159.658 E3.90902
G1 X135.2 Y140.609 E4.76434
G1 X135.209 Y139.944 E4.7942
G1 X135.258 Y139.327 E4.822
G1 X135.385 Y138.72 E4.84984
G1 X135.59 Y138.136 E4.87763
G1 X135.868 Y137.582 E4.90546
G1 X136.215 Y137.069 E4.93327
G1 X136.625 Y136.605 E4.96107
G0 F2400 X137.016 Y136.784
G1 F900 X137.477 Y136.411 E4.9877
G1 X137.984 Y136.103 E5.01434
G1 X138.527 Y135.866 E5.04094
G1 X139.098 Y135.704 E5.06759
G1 X139.886 Y135.611 E5.10322
G1 X140.33 Y135.6 E5.12316
G1 X159.356 Y135.6 E5.97745
G1 X160.054 Y135.61 E6.00879
G1 X160.645 Y135.659 E6.03542
G1 X161.224 Y135.786 E6.06204
G1 X161.781 Y135.99 E6.08867
G1 X162.305 Y136.268 E6.11531
G1 X162.787 Y136.613 E6.14192
G1 X163.219 Y137.02 E6.16857
G1 X163.591 Y137.481 E6.19517
G1 X163.899 Y137.988 E6.22181
G1 X164.135 Y138.532 E6.24843
G1 X164.304 Y139.138 E6.27668
G1 X164.497 Y140.094 E6.32047
G1 X164.659 Y140.959 E6.35999
G1 X165.231 Y143.607 E6.48163
G1 X165.891 Y146.286 E6.60551
G1 X166.191 Y147.425 E6.6584
G1 X166.303 Y148.008 E6.68506
G1 X166.344 Y148.734 E6.71771
G1 X166.346 Y148.87 E6.72382
G1 X166.345 Y149.964 E6.77294
G1 X166.334 Y150.671 E6.80469
G1 X166.285 Y151.262 E6.83131
G1 X166.208 Y151.652 E6.84916
G1 X165.933 Y152.772 E6.90095
G1 X165.308 Y155.487 E7.02604
G1 X164.785 Y158.079 E7.14477
G1 X164.348 Y160.628 E7.26089
G1 X164.314 Y160.808 E7.26912
G1 X164.164 Y161.382 E7.29576
G1 X163.94 Y161.93 E7.32234
G1 X163.643 Y162.444 E7.34899
G1 X163.28 Y162.913 E7.37562
G1 X162.857 Y163.328 E7.40223
G1 X162.383 Y163.684 E7.42885
G1 X161.864 Y163.972 E7.4555
G1 X161.312 Y164.188 E7.48212
G1 X160.736 Y164.327 E7.50872
G1 X160.114 Y164.389 E7.53679
G1 X159.67 Y164.4 E7.55673
G1 X140.644 Y164.4 E8.41102
G1 X139.946 Y164.39 E8.44236
G1 X139.355 Y164.341 E8.46899
G1 X138.776 Y164.214 E8.49561
G1 X138.219 Y164.01 E8.52224
G1 X137.695 Y163.732 E8.54888
G1 X137.213 Y163.387 E8.57549
G1 X136.781 Y162.98 E8.60214
G1 X136.409 Y162.519 E8.62874
G1 X136.101 Y162.012 E8.65538
G1 X135.865 Y161.468 E8.682
G1 X135.704 Y160.898 E8.7086
G1 X135.611 Y160.109 E8.74427
G1 X135.6 Y159.658 E8.76453
G1 X135.6 Y140.614 E9.61962
G1 X135.609 Y139.949 E9.64949
G1 X135.657 Y139.358 E9.67611
G1 X135.784 Y138.779 E9.70273
G1 X135.988 Y138.222 E9.72936
G1 X136.265 Y137.698 E9.75597
G1 X136.61 Y137.216 E9.78259
G1 X137.016 Y136.784 E9.80921
G0 F2400 X137.004 Y137.369
G1 F900 X137.406 Y136.972 E9.83458
G1 X137.86 Y136.635 E9.85996
G1 X138.357 Y136.366 E9.88534
G1 X138.887 Y136.169 E9.91073
G1 X139.44 Y136.05 E9.93613
G1 X140.218 Y136.002 E9.97113
G1 X140.33 Y136 E9.97616
G1 X159.35 Y136 E10.83018
G1 X160.048 Y136.01 E10.86152
G1 X160.612 Y136.058 E10.88694
G1 X161.162 Y136.185 E10.91228
G1 X161.69 Y136.389 E10.9377
G1 X162.184 Y136.664 E10.96308
G1 X162.633 Y137.007 E10.98845
G1 X163.03 Y137.409 E11.01382
G1 X163.367 Y137.864 E11.03925
G1 X163.635 Y138.361 E11.0646
G1 X163.831 Y138.891 E11.08997
G1 X163.912 Y139.217 E11.10506
G1 X164.093 Y140.112 E11.14606
G1 X164.261 Y141.011 E11.18712
G1 X164.838 Y143.682 E11.30982
G1 X165.515 Y146.431 E11.43694
G1 X165.804 Y147.527 E11.48783
G1 X165.909 Y148.083 E11.51324
G1 X165.944 Y148.747 E11.5431
G1 X165.946 Y148.87 E11.54862
G1 X165.946 Y149.958 E11.59747
G1 X165.935 Y150.665 E11.62922
G1 X165.886 Y151.228 E11.6546
G1 X165.82 Y151.557 E11.66966
G1 X165.53 Y152.738 E11.72427
G1 X164.919 Y155.39 E11.84646
G1 X164.391 Y158.011 E11.96651
G1 X163.967 Y160.486 E12.07926
G1 X163.92 Y160.733 E12.09055
G1 X163.777 Y161.28 E12.11594
G1 X163.557 Y161.801 E12.14133
G1 X163.266 Y162.286 E12.16673
G1 X162.91 Y162.725 E12.19211
G1 X162.495 Y163.109 E12.21749
G1 X162.031 Y163.431 E12.24285
G1 X161.525 Y163.685 E12.26828
G1 X160.989 Y163.864 E12.29365
G1 X160.433 Y163.966 E12.31903
G1 X159.782 Y163.998 E12.3483
G1 X159.67 Y164 E12.35333
G1 X140.65 Y164 E13.20735
G1 X139.952 Y163.99 E13.23869
G1 X139.388 Y163.942 E13.26411
G1 X138.838 Y163.815 E13.28945
G1 X138.31 Y163.611 E13.31487
G1 X137.816 Y163.336 E13.34026
G1 X137.367 Y162.993 E13.36563
G1 X136.97 Y162.591 E13.39099
G1 X136.633 Y162.136 E13.41642
G1 X136.365 Y161.639 E13.44177
G1 X136.169 Y161.109 E13.46714
G1 X136.049 Y160.556 E13.49255
G1 X136.001 Y159.766 E13.52809
G1 X136 Y140.62 E14.38777
G1 X136.009 Y139.955 E14.41763
G1 X136.057 Y139.392 E14.443
G1 X136.183 Y138.841 E14.46838
G1 X136.386 Y138.313 E14.49378
G1 X136.662 Y137.819 E14.51919
G1 X137.004 Y137.369 E14.54457
G0 F2400 X137.397 Y137.531
G1 F900 X137.794 Y137.171 E14.56863
G1 X138.241 Y136.873 E14.59275
G1 X138.726 Y136.645 E14.61682
G1 X139.24 Y136.492 E14.6409
G1 X139.908 Y136.41 E14.67111
G1 X140.33 Y136.4 E14.69007
G1 X159.345 Y136.4 E15.54386
G1 X160.043 Y136.41 E15.57521
G1 X160.577 Y136.458 E15.59928
G1 X161.098 Y136.584 E15.62335
G1 X161.595 Y136.787 E15.64746
G1 X162.056 Y137.061 E15.67154
G1 X162.471 Y137.4 E15.6956
G1 X162.831 Y137.798 E15.71969
G1 X163.128 Y138.244 E15.74375
G1 X163.356 Y138.73 E15.76786
G1 X163.52 Y139.296 E15.79432
G1 X163.701 Y140.191 E15.83532
G1 X163.871 Y141.097 E15.87671
G1 X164.454 Y143.798 E16.00078
G1 X165.117 Y146.49 E16.12526
G1 X165.417 Y147.629 E16.17815
G1 X165.515 Y148.156 E16.20222
G1 X165.544 Y148.759 E16.22933
G1 X165.546 Y148.87 E16.23431
G1 X165.546 Y149.952 E16.28289
G1 X165.535 Y150.659 E16.31464
G1 X165.486 Y151.193 E16.33872
G1 X165.431 Y151.461 E16.351
G1 X165.141 Y152.642 E16.40561
G1 X164.531 Y155.292 E16.52771
G1 X163.996 Y157.944 E16.64919
G1 X163.561 Y160.479 E16.76467
G1 X163.527 Y160.659 E16.7729
G1 X163.389 Y161.177 E16.79697
G1 X163.175 Y161.669 E16.82106
G1 X162.89 Y162.124 E16.84517
G1 X162.541 Y162.531 E16.86924
G1 X162.136 Y162.882 E16.8933
G1 X161.683 Y163.168 E16.91736
G1 X161.192 Y163.384 E16.94144
G1 X160.674 Y163.525 E16.96555
G1 X160.091 Y163.59 E16.99189
G1 X159.67 Y163.6 E17.0108
G1 X140.655 Y163.6 E17.86459
G1 X139.957 Y163.59 E17.89594
G1 X139.423 Y163.542 E17.92001
G1 X138.902 Y163.416 E17.94408
G1 X138.405 Y163.213 E17.96819
G1 X137.944 Y162.939 E17.99226
G1 X137.529 Y162.6 E18.01633
G1 X137.169 Y162.202 E18.04042
G1 X136.872 Y161.756 E18.06448
G1 X136.644 Y161.27 E18.08859
G1 X136.492 Y160.756 E18.11265
G1 X136.41 Y160.088 E18.14287
G1 X136.4 Y159.658 E18.16219
G1 X136.4 Y140.625 E19.01679
G1 X136.409 Y139.96 E19.04665
G1 X136.457 Y139.426 E19.07073
G1 X136.583 Y138.905 E19.09479
G1 X136.785 Y138.408 E19.11888
G1 X137.058 Y137.947 E19.14294
G1 X137.397 Y137.531 E19.16703
G0 F2400 X137.789 Y137.704
G1 F900 X138.18 Y137.383 E19.18975
G1 X138.617 Y137.128 E19.21247
G1 X139.088 Y136.944 E19.23517
G1 X139.582 Y136.838 E19.25786
G1 X140.24 Y136.801 E19.28745
G1 X159.339 Y136.8 E20.14502
G1 X160.037 Y136.81 E20.17636
G1 X160.54 Y136.857 E20.19905
G1 X161.03 Y136.983 E20.22176
G1 X161.494 Y137.185 E20.24449
G1 X161.92 Y137.457 E20.26718
G1 X162.298 Y137.792 E20.28986
G1 X162.618 Y138.183 E20.31255
G1 X162.873 Y138.62 E20.33526
G1 X163.056 Y139.091 E20.35795
G1 X163.128 Y139.376 E20.37115
G1 X163.317 Y140.315 E20.41416
G1 X163.48 Y141.184 E20.45386
G1 X164.059 Y143.865 E20.57701
G1 X164.743 Y146.641 E20.70539
G1 X165.03 Y147.731 E20.756
G1 X165.134 Y148.447 E20.78848
G1 X165.146 Y148.87 E20.80749
G1 X165.146 Y149.946 E20.8558
G1 X165.135 Y150.653 E20.88755
G1 X165.043 Y151.366 E20.91983
G1 X164.753 Y152.547 E20.97443
G1 X164.143 Y155.194 E21.0964
G1 X163.602 Y157.876 E21.21925
G1 X163.168 Y160.405 E21.33447
G1 X163.134 Y160.585 E21.34269
G1 X163.002 Y161.073 E21.36539
G1 X162.794 Y161.534 E21.3881
G1 X162.516 Y161.956 E21.41079
G1 X162.175 Y162.329 E21.43348
G1 X161.779 Y162.644 E21.4562
G1 X161.339 Y162.893 E21.4789
G1 X160.865 Y163.069 E21.50161
G1 X160.369 Y163.168 E21.52432
G1 X159.76 Y163.199 E21.5517
G1 X140.661 Y163.2 E22.40926
G1 X139.963 Y163.19 E22.44061
G1 X139.46 Y163.143 E22.46329
G1 X138.97 Y163.017 E22.48601
G1 X138.506 Y162.815 E22.50873
G1 X138.08 Y162.543 E22.53143
G1 X137.702 Y162.208 E22.5541
G1 X137.382 Y161.817 E22.57679
G1 X137.127 Y161.38 E22.59951
G1 X136.944 Y160.909 E22.6222
G1 X136.837 Y160.415 E22.64489
G1 X136.801 Y159.745 E22.67502
G1 X136.8 Y140.631 E23.53326
G1 X136.809 Y139.966 E23.56312
G1 X136.856 Y139.462 E23.58585
G1 X136.982 Y138.973 E23.60853
G1 X137.183 Y138.509 E23.63123
G1 X137.454 Y138.082 E23.65394
G1 X137.789 Y137.704 E23.67662
G1 F600 E17.17662
G0 F2400 X160.312 Y138.964
G0 X161.036 Y139.688
G0 X161.781 Y146.902
G0 X160.9 Y147.774
;TYPE:SUPPORT
G1 F600 E23.67662
G1 F900 X161.746 Y148.63 E23.73066
G1 X161.746 Y150.522 E23.81561
G1 X160.9 Y151.38 E23.86971
G1 X160.9 Y147.774 E24.03163
G0 F2400 X161.06 Y149.352
G1 F900 X161.586 Y149.352 E24.05525
G1 F600 E17.55525
;MESH:xyzCalibration_cube.stl
G0 F2400 X159.38 Y149.352
G0 X159.33 Y159.33
G0 X159.8 Y159.8
;TYPE:WALL-OUTER
G1 F600 E24.05525
G1 F900 X140.2 Y159.8 E24.93531
G1 X140.2 Y140.2 E25.81537
G1 X159.8 Y140.2 E26.69544
G1 X159.8 Y159.8 E27.5755
G0 F2400 X159.6 Y159.8
G0 X159.36 Y159.36
G0 X159.4 Y159.4
;TYPE:WALL-INNER
G1 F900 X140.6 Y159.4 E28.41964
G1 X140.6 Y140.6 E29.26378
G1 X159.4 Y140.6 E30.10792
G1 X159.4 Y159.4 E30.95207
G0 F2400 X159 Y159
G1 F900 X141 Y159 E31.76029
G1 X141 Y141 E32.56851
G1 X159 Y141 E33.37673
G1 X159 Y159 E34.18495
G0 F2400 X158.6 Y158.6
G1 F900 X141.4 Y158.6 E34.95725
G1 X141.4 Y141.4 E35.72955
G1 X158.6 Y141.4 E36.50185
G1 X158.6 Y158.6 E37.27415
G0 F2400 X158.21 Y158.21
;TYPE:SKIN
G1 F900 X141.79 Y158.21 E38.01143
G1 X141.79 Y141.79 E38.74871
G1 X158.21 Y141.79 E39.48599
G1 X158.21 Y158.21 E40.22326
G0 F2400 X158.029 Y142.19
G1 F900 X157.809 Y141.97 E40.23723
G0 F2400 X157.243 Y141.97
G1 F900 X158.029 Y142.756 E40.28714
G0 F2400 X158.029 Y143.322
G1 F900 X156.677 Y141.97 E40.373
G0 F2400 X156.112 Y141.97
G1 F900 X158.029 Y143.887 E40.49473
G0 F2400 X158.029 Y144.453
G1 F900 X155.546 Y141.97 E40.6524
G0 F2400 X154.98 Y141.97
G1 F900 X158.029 Y145.019 E40.84601
G0 F2400 X158.029 Y145.584
G1 F900 X154.415 Y141.97 E41.07549
G0 F2400 X153.849 Y141.97
G1 F900 X158.029 Y146.15 E41.34092
G0 F2400 X158.029 Y146.716
G1 F900 X153.283 Y141.97 E41.64229
G0 F2400 X152.718 Y141.97
G1 F900 X158.029 Y147.281 E41.97954
G0 F2400 X158.029 Y147.847
G1 F900 X152.152 Y141.97 E42.35273
G0 F2400 X151.586 Y141.97
G1 F900 X158.029 Y148.413 E42.76186
G0 F2400 X158.029 Y148.978
G1 F900 X151.021 Y141.97 E43.20687
G0 F2400 X150.455 Y141.97
G1 F900 X158.029 Y149.544 E43.68782
G0 F2400 X158.029 Y150.11
G1 F900 X149.889 Y141.97 E44.2047
G0 F2400 X149.323 Y141.97
G1 F900 X158.029 Y150.675 E44.7575
G0 F2400 X158.029 Y151.241
G1 F900 X148.758 Y141.97 E45.34621
G0 F2400 X148.192 Y141.97
G1 F900 X158.029 Y151.807 E45.97086
G0 F2400 X158.029 Y152.373
G1 F900 X147.626 Y141.97 E46.63145
G0 F2400 X147.061 Y141.97
G1 F900 X158.029 Y152.938 E47.32791
G0 F2400 X158.029 Y153.504
G1 F900 X146.495 Y141.97 E48.06032
G0 F2400 X145.929 Y141.97
G1 F900 X158.029 Y154.07 E48.82867
G0 F2400 X158.029 Y154.635
G1 F900 X145.364 Y141.97 E49.63289
G0 F2400 X144.798 Y141.97
G1 F900 X158.029 Y155.201 E50.47306
G0 F2400 X158.029 Y155.767
G1 F900 X144.232 Y141.97 E51.34917
G0 F2400 X143.667 Y141.97
G1 F900 X158.029 Y156.332 E52.26115
G0 F2400 X158.029 Y156.898
G1 F900 X143.101 Y141.97 E53.20908
G0 F2400 X142.535 Y141.97
G1 F900 X158.029 Y157.464 E54.19295
G0 F2400 X158.029 Y158.029
G1 F900 X141.969 Y141.969 E55.21275
G0 F2400 X141.969 Y142.535
G1 F900 X157.464 Y158.029 E56.19665
G0 F2400 X156.898 Y158.029
G1 F900 X141.969 Y143.1 E57.14464
G0 F2400 X141.969 Y143.666
G1 F900 X156.332 Y158.029 E58.05669
G0 F2400 X155.767 Y158.029
G1 F900 X141.969 Y144.232 E58.93283
G0 F2400 X141.969 Y144.797
G1 F900 X155.201 Y158.029 E59.77306
G0 F2400 X154.635 Y158.029
G1 F900 X141.969 Y145.363 E60.57735
G0 F2400 X141.969 Y145.929
G1 F900 X154.07 Y158.029 E61.34573
G0 F2400 X153.504 Y158.029
G1 F900 X141.969 Y146.494 E62.0782
G0 F2400 X141.969 Y147.06
G1 F900 X152.938 Y158.029 E62.77473
G0 F2400 X152.373 Y158.029
G1 F900 X141.969 Y147.626 E63.43535
G0 F2400 X141.969 Y148.191
G1 F900 X151.807 Y158.029 E64.06006
G0 F2400 X151.241 Y158.029
G1 F900 X141.969 Y148.757 E64.64883
G0 F2400 X141.969 Y149.323
G1 F900 X150.675 Y158.029 E65.20166
G0 F2400 X150.11 Y158.029
G1 F900 X141.969 Y149.888 E65.71862
G0 F2400 X141.969 Y150.454
G1 F900 X149.544 Y158.029 E66.19963
G0 F2400 X148.978 Y158.029
G1 F900 X141.969 Y151.02 E66.6447
G0 F2400 X141.969 Y151.586
G1 F900 X148.413 Y158.029 E67.05386
G0 F2400 X147.847 Y158.029
G1 F900 X141.969 Y152.151 E67.42711
G0 F2400 X141.969 Y152.717
G1 F900 X147.281 Y158.029 E67.76442
G0 F2400 X146.716 Y158.029
G1 F900 X141.969 Y153.283 E68.06583
G0 F2400 X141.969 Y153.848
G1 F900 X146.15 Y158.029 E68.33132
G0 F2400 X145.584 Y158.029
G1 F900 X141.969 Y154.414 E68.56087
G0 F2400 X141.969 Y154.98
G1 F900 X145.019 Y158.029 E68.75451
G0 F2400 X144.453 Y158.029
G1 F900 X141.969 Y155.545 E68.91225
G0 F2400 X141.969 Y156.111
G1 F900 X143.887 Y158.029 E69.03404
G0 F2400 X143.322 Y158.029
G1 F900 X141.969 Y156.677 E69.11992
G0 F2400 X141.969 Y157.242
G1 F900 X142.756 Y158.029 E69.1699
G0 F2400 X142.19 Y158.029
G1 F900 X141.969 Y157.808 E69.18393
G1 F600 E62.68393
;MESH:NONMESH
G0 F600 X141.969 Y157.808 Z0.6
G0 F2400 X159.38 Y147.774
G0 X160.9 Y147.774
;TIME_ELAPSED:114.564747
;LAYER:1
M106 S127.5
;TYPE:SUPPORT
G1 F600 E69.18393
G1 F1800 X161.746 Y148.63 E69.24397
G1 X161.746 Y150.522 E69.33837
G1 X160.9 Y151.38 E69.39848
G1 X160.9 Y147.774 E69.57839
